storage/app/icons/phosphoricons/bold/file-pdf-bold.svg

<svg xmlns="http://www.w3.org/2000/svg" fill="currentColor" viewBox="0 0 256 256"><path d="M200 164v8h12a12 12 0 0 1 0 24h-12v12a12 12 0 0 1-24 0v-56a12 12 0 0 1 12-12h32a12 12 0 0 1 0 24Zm-108 8a32 32 0 0 1-32 32h-4v4a12 12 0 0 1-24 0v-56a12 12 0 0 1 12-12h16a32 32 0 0 1 32 32m-24 0a8 8 0 0 0-8-8h-4v16h4a8 8 0 0 0 8-8m100 8a40 40 0 0 1-40 40h-16a12 12 0 0 1-12-12v-56a12 12 0 0 1 12-12h16a40 40 0 0 1 40 40m-24 0a16 16 0 0 0-16-16h-4v32h4a16 16 0 0 0 16-16M36 108V40a20 20 0 0 1 20-20h96a12 12 0 0 1 8.49 3.52l56 56A12 12 0 0 1 220 88v20a12 12 0 0 1-24 0v-4h-48a12 12 0 0 1-12-12V44H60v64a12 12 0 0 1-24 0m124-51v23h23Z"/></svg>

<svg xmlns="http://www.w3.org/2000/svg" viewBox="0 0 256 256" fill="currentColor"><path d="M200,164v8h12a12,12,0,0,1,0,24H200v12a12,12,0,0,1-24,0V152a12,12,0,0,1,12-12h32a12,12,0,0,1,0,24ZM92,172a32,32,0,0,1-32,32H56v4a12,12,0,0,1-24,0V152a12,12,0,0,1,12-12H60A32,32,0,0,1,92,172Zm-24,0a8,8,0,0,0-8-8H56v16h4A8,8,0,0,0,68,172Zm100,8a40,40,0,0,1-40,40H112a12,12,0,0,1-12-12V152a12,12,0,0,1,12-12h16A40,40,0,0,1,168,180Zm-24,0a16,16,0,0,0-16-16h-4v32h4A16,16,0,0,0,144,180ZM36,108V40A20,20,0,0,1,56,20h96a12,12,0,0,1,8.49,3.52l56,56A12,12,0,0,1,220,88v20a12,12,0,0,1-24,0v-4H148a12,12,0,0,1-12-12V44H60v64a12,12,0,0,1-24,0ZM160,57V80h23Z"/></svg>
